X:1
T:Darcy Farrow
M:4/4
L:1/8
K:A
 e/2e/2| e e2 ed cB A| AA A3/2 F/2 E4| z AA Bc cc d| ed dc B2 z e|\
 ff eed-c BA| A3 F E2 EE| F2 G2 A2 Bd| c2 B3/2 A/2 A2 z z|
